X:1
T: The Cotery
N:1st tune is "The Cotery": 2nd tune is "The Gay Cotery"
C:
S:Two tunes - can end on either
A:
O:
R:
M:4/4
K:Am
I:speed 200
%W: A1
% voice 1 (1 lines, 34 notes)
K:Am
M:4/4
L:1/16
e2 d2 c2 B2 A4 c4 |B4 d4 c4 e4 |d4 f4 e4 c4 |B4 A4 ^G4 E4 |e2 d2 c2 B2 c4 e4 |d4 f4 e4 a4 |g4 f4 e4 d4 |c8 C8 |
%W: A2
% voice 1 (1 lines, 34 notes)
e2 d2 c2 B2 A4 c4 |B4 d4 c4 e4 |d4 f4 e4 c4 |B4 A4 ^G4 E4 |e2 d2 c2 B2 c4 e4 |d4 f4 e4 a4 |g4 f4 e4 d4 |c8 C8 |
%W: B1
% voice 1 (1 lines, 32 notes)
e2 d2 ^c2 d2 e4 E4 |d2 c2 B2 d2 c4 e4 |d4 c4 B4 A4 |B8 E8 |A4 c4 B4 f4 |e4 a4 e4 c4 |B4 A4 B4 ^G4 |A8 A,8 |
%W: B2
% voice 1 (1 lines, 32 notes)
e2 d2 ^c2 d2 e4 E4 |d2 c2 B2 d2 c4 e4 |d4 c4 B4 A4 |B8 E8 |A4 c4 B4 f4 |e4 a4 e4 c4 |B4 A4 B4 ^G4 |A8 A,8 ||
%W: A1
% voice 1 (1 lines, 37 notes)
K:Em
E4 G4 F4 A4 |G4 B4 A4 F4 |E4 G4 F4 E4 |^D4 B,4 B2 A2 G2 F2 |E4 G4 F4 A4 |G4 e4 e4 ^d4 |e2 d2 c2 B2 A6 B2 |B8 B2 A2 G2 F2 |
%W: A2
% voice 1 (1 lines, 37 notes)
E4 G4 F4 A4 |G4 B4 A4 F4 |E4 G4 F4 E4 |^D4 B,4 B2 A2 G2 F2 |E4 G4 F4 A4 |G4 e4 e4 ^d4 |e2 d2 c2 B2 A6 B2 |B8 e2 d2 c2 B2 |
%W: B1
% voice 1 (1 lines, 39 notes)
A8 d2 c2 B2 A2 |G8 c2 B2 A2 G2 |F4 A4 G4 E4 |^D4 B,4 B4 F4 |E2 F2 G2 E2 A4 F4 |G2 B2 A2 G2 e4 ^d4 |e4 A4 F6 E2 |E8 e2 d2 c2 B2 |
%W: B2
% voice 1 (1 lines, 35 notes)
A8 d2 c2 B2 A2 |G8 c2 B2 A2 G2 |F4 A4 G4 E4 |^D4 B,4 B4 F4 |E2 F2 G2 E2 A4 F4 |G2 B2 A2 G2 e4 ^d4 |e4 A4 F6 E2 |E16 ||
